gnome-shell/src/data/icons/scalable/status/message-indicator-symbolic.svg

<?xml version="1.0" encoding="UTF-8" standalone="no"?>
<svg
   width="16"
   height="16"
   viewBox="0 0 4.233 4.233"
   version="1.1"
   id="svg4"
   sodipodi:docname="message-indicator-symbolic.svg"
   inkscape:version="1.2 (1:1.2.1+202207142221+cd75a1ee6d)"
   xmlns:inkscape="http://www.inkscape.org/namespaces/inkscape"
   xmlns:sodipodi="http://sodipodi.sourceforge.net/DTD/sodipodi-0.dtd"
   xmlns="http://www.w3.org/2000/svg"
   xmlns:svg="http://www.w3.org/2000/svg">
  <defs
     id="defs8" />
  <sodipodi:namedview
     id="namedview6"
     pagecolor="#ffffff"
     bordercolor="#666666"
     borderopacity="1.0"
     inkscape:showpageshadow="2"
     inkscape:pageopacity="0.0"
     inkscape:pagecheckerboard="0"
     inkscape:deskcolor="#d1d1d1"
     showgrid="false"
     showborder="false"
     inkscape:zoom="32"
     inkscape:cx="10.78125"
     inkscape:cy="11.09375"
     inkscape:window-width="1920"
     inkscape:window-height="1043"
     inkscape:window-x="0"
     inkscape:window-y="0"
     inkscape:window-maximized="1"
     inkscape:current-layer="svg4">
    <inkscape:grid
       type="xygrid"
       id="grid302" />
  </sodipodi:namedview>
  <path
     id="path295"
     style="font-feature-settings:normal;font-variant-alternates:normal;font-variant-caps:normal;font-variant-east-asian:normal;font-variant-ligatures:normal;font-variant-numeric:normal;font-variant-position:normal;font-variation-settings:normal;inline-size:0;isolation:auto;mix-blend-mode:normal;shape-margin:0;shape-padding:0;text-decoration-color:#000;text-decoration-line:none;text-decoration-style:solid;text-indent:0;text-orientation:mixed;text-transform:none;white-space:normal;fill:#808080"
     d="M 11.499239 0.99993386 A 1.4999008 1.4999008 0 0 0 9.9993386 2.4998346 A 1.4999008 1.4999008 0 0 0 11.499239 3.9997354 A 1.4999008 1.4999008 0 0 0 12.99914 2.4998346 A 1.4999008 1.4999008 0 0 0 11.499239 0.99993386 z M 7.9994709 1.9998677 C 6.4734754 1.9998677 5.4554069 2.7806398 4.9274084 3.8376368 C 4.3984102 4.8946335 4.2526796 6.1907299 4.1266802 7.448726 C 4.0006805 8.7067224 3.8975114 9.9358684 3.5935123 10.766866 C 3.4415129 11.181866 3.2466597 11.486774 3.0056606 11.684774 C 2.7656612 11.882774 2.4698662 11.999206 1.9998677 11.999206 L 1.9998677 12.99914 L 13.999074 12.99914 L 13.999074 11.999206 C 13.529074 11.999206 13.234281 11.882774 12.993281 11.684774 C 12.753281 11.485774 12.557429 11.181866 12.405429 10.766866 C 12.101432 9.9368684 11.998259 8.7067224 11.872262 7.448726 C 11.789468 6.6221067 11.695786 5.7805424 11.49338 4.9996693 A 2.4998348 2.4998348 0 0 1 10.35869 4.7223439 C 10.637933 5.5037426 10.77268 6.5111203 10.876234 7.5483288 C 11.000234 8.7903252 11.086947 10.064643 11.469944 11.10864 C 11.595944 11.45464 11.838796 11.718209 12.057796 11.999206 L 3.9430986 11.999206 C 4.1620977 11.717209 4.4039506 11.455593 4.5309503 11.110593 C 4.9139491 10.065596 4.9987083 8.7893252 5.122708 7.5483288 C 5.2467077 6.3063327 5.4138347 5.1028704 5.8238335 4.2848728 C 6.2308323 3.4668752 6.7754745 2.9998016 7.9994709 2.9998016 C 8.4478745 2.9998016 8.8042767 3.0637243 9.0970545 3.1833832 A 2.4998348 2.4998348 0 0 1 8.9994047 2.4998346 A 2.4998348 2.4998348 0 0 1 9.0267467 2.1326714 C 8.7142411 2.0467939 8.3722837 1.9998677 7.9994709 1.9998677 z M 5.9996031 13.999074 A 2.0235 2.0235 0 0 0 10.04621 13.999074 L 5.9996031 13.999074 z "
     transform="scale(0.26458)" />
</svg>

<svg width="16" height="16" viewBox="0 0 4.233 4.233" xmlns="http://www.w3.org/2000/svg"><path transform="scale(.26458)" d="M6.387.01C4.843.368 3.719 1.185 3.02 2.322 2.32 3.46 2.03 4.882 2 6.486l1 .02c.029-1.496.304-2.74.871-3.66.567-.921 1.411-1.554 2.742-1.864L6.387.01zm3.226 0-.226.972c1.33.31 2.175.943 2.742 1.864.567.92.842 2.164.871 3.66l1-.02c-.031-1.605-.32-3.027-1.02-4.164C12.28 1.185 11.158.368 9.614.01zM8 2c-1.526 0-2.544.781-3.072 1.838-.529 1.057-.675 2.353-.801 3.611s-.229 2.486-.533 3.317c-.152.415-.347.72-.588.918C2.766 11.882 2.47 12 2 12v1h12v-1c-.47 0-.765-.118-1.006-.316-.24-.199-.436-.503-.588-.918-.304-.83-.407-2.059-.533-3.317-.126-1.258-.272-2.554-.8-3.611C10.542 2.78 9.525 2 8 2zm0 1c1.224 0 1.769.467 2.178 1.285.409.818.575 2.022.699 3.264s.209 2.516.592 3.56c.126.346.369.61.588.891H3.943c.219-.282.461-.545.588-.89.383-1.045.468-2.32.592-3.561.124-1.242.29-2.446.7-3.264C6.23 3.467 6.776 3 8 3zM6 14a2.023 2.023 0 0 0 4.047 0H6z" style="font-feature-settings:normal;font-variant-alternates:normal;font-variant-caps:normal;font-variant-east-asian:normal;font-variant-ligatures:normal;font-variant-numeric:normal;font-variant-position:normal;font-variation-settings:normal;inline-size:0;isolation:auto;mix-blend-mode:normal;shape-margin:0;shape-padding:0;text-decoration-color:#000;text-decoration-line:none;text-decoration-style:solid;text-indent:0;text-orientation:mixed;text-transform:none;white-space:normal" fill="gray"/></svg>
